X:37
T:Assis sur l'herbette. [FJ37]
S:Festin joyeux.  Music page 18.
Z:transcribed by Eric Conrad, 2021.
N:NB The meter is given simply as "3"
N:NB In the MS, the G is the bottom line of the staff
N:NB Repeat marks were added at beginning.  A repeat before the last measure is treated as a second ending.
N:NB The MS repeat mark is 4 vertical dots enclosed by bars on both sides.
N:NB The plus signs seem to indicate some kind of roll or trill.
N:NB1 MS has "|c2-::c3/2||", here "|1c2:|2c3/z/|]", ignoring the tie and adding an implied rest.
M:3/4
L:1/4
% K:C clef=treble1 % staff GBDfa
K:C % empty key sig, ending on second space in MS (i.e. ending on C) -> C major
|: c | e>fd | cGe | g>af | "^+"e2 :: g |
g>ff | eee | de d/c/4d/4 | "^+"d2G | ABc |
"^+"B2G | g2f | (ed>)c |1 "_NB1"c2 :|2 c3/ z/ |]

